X: 1
T:The Cowboy's Jig
T:Simplified Bare Bones Version
R: jig
M: 6/8
L: 1/8
K: G
 "G"G3 G2A | B2f g3 | "Am"ABc B2A |"C" B2A "D7"B3|
"G"G3 G2A | B2f g3 | "Am"ABc "D7"B2A | "G"B2G G3 :|
|:  "C"e2e e2e | e2f e3 | "Bm"d2d d2d |"Em" d2e d3 |
"C"c2d "D7"e2f | "Em"g3 "Am"A3 | "D7"B2A B2A | "G"B2G G3 :|
